X:289
T:Peter Street
Z: id:dc-reel-269
M:C
L:1/8
K:G Major
D|G2BG dGBG|dgg2 efge|G2BG dGBG|ADBD cAFA|!
G2BG dGBG|dgg2 efge|dBde gfge|dBAB G3:|!
D|A2FD ADFD|ADBD cAFA|G2BG dGBG|dgg2 efge|!
dBde gfge|dBde gfge|degf edcB|[1 AGFE DEF:|[2 AGAB G3|]!

